X:1540
T:Same Old Story, The
R:reel
N:"collected from Walsh"
B:"O'Neill's Dance Music of Ireland, 1540"
T: an sean sgeal cea.dna.
Z:transcribed by John B. Walsh, walsh@math.ubc.ca 8/23/96
M:2/4
L:1/16
K:G
D2|G2(BG) ABcA|BdcA BGAD|G2(BG) ABcA|BdcA GDEF|
G2(BG) ABcA|BdcA BGAD|G2(BG) ABcA|BdcA G2||
D2|G2(GF) GABd|e^def e=dBA|G2(GF) GABG|ABAG FDEF|
G2(GF) GABd|e^def e=dBd|gfgd edBG|AGEF G2||


